src/components/00-materials/images-raw/Ventilation.svg

<svg width="96" height="96" viewBox="0 0 96 96" fill="none" xmlns="http://www.w3.org/2000/svg">
<path d="M26.81 17H67.18C70.3149 17 73.3213 18.2453 75.538 20.462C77.7547 22.6787 79 25.6851 79 28.82V69.18C79 72.3149 77.7547 75.3213 75.538 77.538C73.3213 79.7547 70.3149 81 67.18 81H26.81C23.6778 81 20.6739 79.7557 18.4591 77.5409C16.2443 75.3261 15 72.3222 15 69.19V28.81C15 25.6778 16.2443 22.6739 18.4591 20.4591C20.6739 18.2443 23.6778 17 26.81 17V17Z" stroke="#00008F" stroke-width="2" stroke-linecap="round" stroke-linejoin="round"/>
<path d="M21.93 73.14H25.64M72.07 72C72.07 72.5933 71.894 73.1734 71.5644 73.6667C71.2348 74.1601 70.7662 74.5446 70.218 74.7716C69.6699 74.9987 69.0667 75.0581 68.4847 74.9424C67.9028 74.8266 67.3682 74.5409 66.9487 74.1213C66.5291 73.7018 66.2434 73.1672 66.1276 72.5853C66.0119 72.0033 66.0713 71.4001 66.2984 70.852C66.5254 70.3038 66.9099 69.8352 67.4033 69.5056C67.8966 69.1759 68.4766 69 69.07 69C69.8656 69 70.6287 69.3161 71.1913 69.8787C71.7539 70.4413 72.07 71.2044 72.07 72Z" stroke="#00008F" stroke-width="2" stroke-linecap="round" stroke-linejoin="round"/>
<path d="M54.73 28.8901H39.26C32.4227 28.8901 26.88 34.4329 26.88 41.2701V56.7401C26.88 63.5774 32.4227 69.1201 39.26 69.1201H54.73C61.5673 69.1201 67.11 63.5774 67.11 56.7401V41.2701C67.11 34.4329 61.5673 28.8901 54.73 28.8901Z" stroke="#00008F" stroke-width="2" stroke-linecap="round" stroke-linejoin="round"/>
<path d="M52.75 34.04H41.24C36.159 34.04 32.04 38.159 32.04 43.24V54.75C32.04 59.8311 36.159 63.95 41.24 63.95H52.75C57.831 63.95 61.95 59.8311 61.95 54.75V43.24C61.95 38.159 57.831 34.04 52.75 34.04Z" stroke="#00008F" stroke-width="2" stroke-linecap="round" stroke-linejoin="round"/>
<path d="M67.11 49.0001H26.88M43.21 39.1401H50.79C52.3999 39.1401 53.9438 39.7797 55.0821 40.918C56.2205 42.0563 56.86 43.6003 56.86 45.2101V52.7901C56.86 54.4 56.2205 55.9439 55.0821 57.0823C53.9438 58.2206 52.3999 58.8601 50.79 58.8601H43.21C42.4142 58.8601 41.6262 58.7034 40.8909 58.3988C40.1557 58.0943 39.4877 57.6479 38.9249 57.0852C38.3622 56.5225 37.9158 55.8544 37.6113 55.1192C37.3068 54.384 37.15 53.5959 37.15 52.8001V45.2101C37.1487 44.4135 37.3045 43.6244 37.6084 42.888C37.9124 42.1516 38.3585 41.4824 38.9214 40.9186C39.4843 40.3548 40.1527 39.9076 40.8886 39.6024C41.6245 39.2972 42.4134 39.1401 43.21 39.1401V39.1401ZM47 28.8901V69.1101V28.8901Z" stroke="#00008F" stroke-width="2" stroke-linecap="round" stroke-linejoin="round"/>
</svg>

<svg width="96" height="96" viewBox="0 0 96 96" fill="none" xmlns="http://www.w3.org/2000/svg"><path d="M26.81 17h40.37A11.82 11.82 0 0179 28.82v40.36A11.82 11.82 0 0167.18 81H26.81A11.81 11.81 0 0115 69.19V28.81A11.81 11.81 0 0126.81 17v0z" stroke="#00008F" stroke-width="2" stroke-linecap="round" stroke-linejoin="round"/><path d="M21.93 73.14h3.71M72.07 72a3 3 0 11-6 0 3 3 0 016 0zM54.73 28.89H39.26c-6.837 0-12.38 5.543-12.38 12.38v15.47c0 6.837 5.543 12.38 12.38 12.38h15.47c6.837 0 12.38-5.543 12.38-12.38V41.27c0-6.837-5.543-12.38-12.38-12.38z" stroke="#00008F" stroke-width="2" stroke-linecap="round" stroke-linejoin="round"/><path d="M52.75 34.04H41.24a9.2 9.2 0 00-9.2 9.2v11.51a9.2 9.2 0 009.2 9.2h11.51a9.2 9.2 0 009.2-9.2V43.24a9.2 9.2 0 00-9.2-9.2z" stroke="#00008F" stroke-width="2" stroke-linecap="round" stroke-linejoin="round"/><path d="M67.11 49H26.88m16.33-9.86h7.58a6.07 6.07 0 016.07 6.07v7.58a6.07 6.07 0 01-6.07 6.07h-7.58a6.06 6.06 0 01-6.06-6.06v-7.59a6.061 6.061 0 016.06-6.07v0zM47 28.89v40.22-40.22z" stroke="#00008F" stroke-width="2" stroke-linecap="round" stroke-linejoin="round"/></svg>
